X:59
T:score15
L:1/16
Q:1/4=96
M:4/4
I:linebreak $
K:Eb
 !>!e6 GG B4 E4 | (A8 F4) B4 | !>!B6 GB e4 c4 | B12 B4 |$ !>!e7 G B4 E4 | _c12 B4 | B7 B e7 e | %7
 _g4 f4 e4 c4 |$ B4 (3c2B2A2 G4 F4 | E4 z4 z4 z4 |] %10
